client/public/email-out.svg

<?xml version="1.0" encoding="utf-8"?><!-- Uploaded to: SVG Repo, www.svgrepo.com, Generator: SVG Repo Mixer Tools -->
<svg width="800px" height="800px" viewBox="0 0 24 24" fill="none" xmlns="http://www.w3.org/2000/svg">
<path fill-rule="evenodd" clip-rule="evenodd" d="M2.8 4C1.86451 4 1.0468 4.46923 0.544325 5.16792C0.20074 5.64567 0 6.23499 0 6.86667V17.1333C0 18.682 1.21964 20 2.8 20H12.2C12.7523 20 13.2 19.5523 13.2 19C13.2 18.4477 12.7523 18 12.2 18H2.8C2.39214 18 2 17.6466 2 17.1333V7.94766L7.77948 14.3096C8.96986 15.6199 11.0301 15.6199 12.2205 14.3096L18 7.94766V12.1333C18 12.6856 18.4477 13.1333 19 13.1333C19.5523 13.1333 20 12.6856 20 12.1333V6.86667C20 6.235 19.7993 5.64567 19.4557 5.16792C18.9532 4.46923 18.1355 4 17.2 4H2.8ZM9.25983 12.9647L2.9327 6H17.0673L10.7402 12.9647C10.3434 13.4015 9.65662 13.4015 9.25983 12.9647ZM20 15.5C20 14.9477 19.5523 14.5 19 14.5C18.4477 14.5 18 14.9477 18 15.5V18H15.5C14.9477 18 14.5 18.4477 14.5 19C14.5 19.5523 14.9477 20 15.5 20H18V22.5C18 23.0523 18.4477 23.5 19 23.5C19.5523 23.5 20 23.0523 20 22.5V20H22.5C23.0523 20 23.5 19.5523 23.5 19C23.5 18.4477 23.0523 18 22.5 18H20V15.5Z" fill="#000000"/>
</svg>

<svg fill="#999" viewBox="0 0 24 24" xmlns="http://www.w3.org/2000/svg"><path fill-rule="evenodd" clip-rule="evenodd" d="M2.8 4c-.935 0-1.753.47-2.256 1.168A2.904 2.904 0 0 0 0 6.867v10.266C0 18.682 1.22 20 2.8 20h9.4a1 1 0 1 0 0-2H2.8c-.408 0-.8-.353-.8-.867V7.948l5.78 6.362a3 3 0 0 0 4.44 0L18 7.948v4.185a1 1 0 1 0 2 0V6.867c0-.632-.2-1.221-.544-1.7A2.777 2.777 0 0 0 17.2 4H2.8Zm6.46 8.965L2.933 6h14.134l-6.327 6.965a1 1 0 0 1-1.48 0ZM20 15.5a1 1 0 1 0-2 0V18h-2.5a1 1 0 1 0 0 2H18v2.5a1 1 0 1 0 2 0V20h2.5a1 1 0 1 0 0-2H20v-2.5Z"/></svg>
